buildsupport/Graphics/pictures/svg/hand.svg

<?xml version="1.0" encoding="UTF-8"?>
<svg xmlns="http://www.w3.org/2000/svg" xmlns:xlink="http://www.w3.org/1999/xlink" width="1024pt" height="1319pt" viewBox="0 0 1024 1319" version="1.1">
<g id="surface1">
<path style="fill-rule:evenodd;fill:rgb(97.647059%,74.901961%,62.352941%);fill-opacity:1;stroke-width:4;stroke-linecap:butt;stroke-linejoin:miter;stroke:rgb(0%,0%,0%);stroke-opacity:1;stroke-miterlimit:4;" d="M 371.290111 581.729655 C 370.600225 550.980609 384.999914 510.729189 385.309349 481.379441 C 367.840679 456.740273 316.870242 443.359793 282.000538 443.359793 C 245.330027 446.960408 178.409347 450.044957 150.739488 468.934648 C 157.043156 515.32471 169.256514 529.70348 167.511507 581.425091 " transform="matrix(2.310163,0,0,2.308634,-51.416328,-28.617822)"/>
<path style="fill-rule:evenodd;fill:rgb(97.647059%,74.901961%,62.352941%);fill-opacity:1;stroke-width:4;stroke-linecap:butt;stroke-linejoin:miter;stroke:rgb(0%,0%,0%);stroke-opacity:1;stroke-miterlimit:4;" d="M 265.749314 518.490476 C 233.459921 514.800184 219.310485 519.480306 193.999429 516.360225 C 146.250153 509.1793 118.020606 452.359638 101.549566 420.979469 C 72.481334 356.589718 50.26124 344.539165 47.102642 326.92018 C 38.049573 297.619501 14.674596 267.510038 29.136848 249.630482 C 45.029601 230.351627 90.198566 266.535436 103.284428 292.568827 C 114.221158 322.558157 143.952222 350.81486 154.097612 344.586541 C 166.784421 336.085842 153.75605 296.079765 162.712738 249.583106 C 167.709343 222.407602 155.820637 182.203559 157.355973 171.459243 C 162.031306 112.937411 152.859874 117.803655 155.051278 93.252472 C 155.137514 81.230683 153.203126 56.659195 164.500018 43.857386 C 171.561209 36.696765 187.964613 33.989536 196.605103 42.662821 C 206.725129 57.85376 207.415015 68.572695 208.984169 84.365992 C 209.614874 92.277869 210.414669 99.905487 208.984169 112.862962 C 209.090696 131.549611 212.97638 152.1567 216.25165 170.628462 C 219.097432 191.565495 216.557702 217.419532 221.386908 236.19755 C 223.432895 244.241404 242.05983 244.385226 243.084514 236.087569 C 247.201851 204.89183 241.466325 170.94487 241.118 153.84195 C 242.781843 136.776255 242.4927 94.017264 242.484245 92.865 C 245.54308 73.066695 242.376028 53.224398 247.65163 35.13334 C 251.102754 24.72066 257.87311 14.707297 273.417538 14.39935 C 284.582539 14.340129 293.718463 23.549784 295.12529 37.56477 C 296.74348 59.735284 299.083683 81.586007 300.083004 91.340491 C 298.782703 117.165764 299.428626 137.992816 301.185469 155.053435 C 302.446879 174.447347 294.230805 214.157321 298.45805 238.818486 C 300.270693 247.314109 315.137071 249.25993 316.266591 241.930108 C 322.002118 212.5296 320.378855 207.788565 324.58581 168.630189 C 328.884074 142.635714 338.016615 128.118198 340.383873 94.653463 C 342.932056 73.239281 346.325689 52.989208 356.851531 46.331116 C 365.774401 41.057096 370.681388 42.99784 374.851143 44.830296 C 393.454405 54.855504 389.692157 79.838152 388.488237 100.648283 C 385.799709 121.989708 382.083115 155.444291 381.985043 175.863566 C 378.811227 201.198154 365.830201 233.91671 365.280659 256.769107 C 365.637438 263.154783 377.74427 267.506654 380.66276 262.980505 C 393.916021 246.138157 397.887941 214.3739 402.154077 205.154093 C 406.606212 195.528202 414.719142 165.745298 418.726571 158.977225 C 426.317013 146.160188 430.126607 128.547971 441.475916 122.971079 C 448.80596 120.270618 460.632102 124.737546 463.080523 135.37188 C 464.012208 149.789567 460.413976 171.635213 456.445438 182.008976 C 449.35212 200.556879 446.294976 224.333119 441.775205 235.848994 C 437.848939 245.85559 427.598714 275.635109 421.484426 301.363937 C 404.037738 371.283204 408.12633 481.154403 370.608679 508.754603 C 336.543843 538.804846 288.00999 521.136792 265.737478 518.492168 Z M 265.749314 518.490476 " transform="matrix(2.310163,0,0,2.308634,-51.416328,-28.617822)"/>
<path style="fill:none;stroke-width:4;stroke-linecap:round;stroke-linejoin:miter;stroke:rgb(0%,0%,0%);stroke-opacity:0.501961;stroke-miterlimit:4;" d="M 214.269917 311.409449 C 269.208892 336.119682 330.449845 323.466771 378.380047 348.838583 " transform="matrix(2.310163,0,0,2.308634,-51.416328,-28.617822)"/>
<path style="fill:none;stroke-width:4;stroke-linecap:round;stroke-linejoin:miter;stroke:rgb(0%,0%,0%);stroke-opacity:0.501961;stroke-miterlimit:4;" d="M 202.129268 332.290645 C 234.49306 360.755467 257.012443 415.153851 256.85519 458.070199 " transform="matrix(2.310163,0,0,2.308634,-51.416328,-28.617822)"/>
<path style="fill:none;stroke-width:4;stroke-linecap:round;stroke-linejoin:miter;stroke:rgb(0%,0%,0%);stroke-opacity:0.501961;stroke-miterlimit:4;" d="M 168.390775 177.750167 C 179.329195 174.442271 191.17901 173.655483 202.198594 175.056474 " transform="matrix(2.310163,0,0,2.308634,-51.416328,-28.617822)"/>
<path style="fill:none;stroke-width:4;stroke-linecap:round;stroke-linejoin:miter;stroke:rgb(0%,0%,0%);stroke-opacity:0.501961;stroke-miterlimit:4;" d="M 165.489193 106.250555 C 176.953483 103.473954 188.664645 104.059392 199.990281 105.75141 " transform="matrix(2.310163,0,0,2.308634,-51.416328,-28.617822)"/>
<path style="fill:none;stroke-width:4;stroke-linecap:round;stroke-linejoin:miter;stroke:rgb(0%,0%,0%);stroke-opacity:0.501961;stroke-miterlimit:4;" d="M 252.729398 90.584159 C 262.959332 87.920923 278.747249 87.580827 288.136807 90.482638 " transform="matrix(2.310163,0,0,2.308634,-51.416328,-28.617822)"/>
<path style="fill:none;stroke-width:4;stroke-linecap:round;stroke-linejoin:miter;stroke:rgb(0%,0%,0%);stroke-opacity:0.501961;stroke-miterlimit:4;" d="M 252.829161 161.860424 C 264.585976 157.97555 280.537911 157.37996 291.844947 161.058408 " transform="matrix(2.310163,0,0,2.308634,-51.416328,-28.617822)"/>
<path style="fill:none;stroke-width:4;stroke-linecap:round;stroke-linejoin:miter;stroke:rgb(0%,0%,0%);stroke-opacity:0.501961;stroke-miterlimit:4;" d="M 349.070017 111.340146 C 358.611756 113.468705 370.378717 111.698854 377.975923 115.642948 " transform="matrix(2.310163,0,0,2.308634,-51.416328,-28.617822)"/>
<path style="fill:none;stroke-width:4;stroke-linecap:round;stroke-linejoin:miter;stroke:rgb(0%,0%,0%);stroke-opacity:0.501961;stroke-miterlimit:4;" d="M 334.729509 172.430462 C 342.710549 174.389819 361.579282 175.452406 369.53834 179.432033 " transform="matrix(2.310163,0,0,2.308634,-51.416328,-28.617822)"/>
<path style="fill:none;stroke-width:4;stroke-linecap:round;stroke-linejoin:miter;stroke:rgb(0%,0%,0%);stroke-opacity:0.501961;stroke-miterlimit:4;" d="M 410.559532 213.270704 C 416.922382 214.954262 428.197292 221.4753 433.564203 226.077589 " transform="matrix(2.310163,0,0,2.308634,-51.416328,-28.617822)"/>
<path style="fill:none;stroke-width:4;stroke-linecap:round;stroke-linejoin:miter;stroke:rgb(0%,0%,0%);stroke-opacity:0.501961;stroke-miterlimit:4;" d="M 426.310249 168.780778 C 433.327477 170.444032 439.664964 172.850082 445.508708 177.981973 " transform="matrix(2.310163,0,0,2.308634,-51.416328,-28.617822)"/>
<path style="fill:none;stroke-width:4;stroke-linecap:round;stroke-linejoin:miter;stroke:rgb(0%,0%,0%);stroke-opacity:0.501961;stroke-miterlimit:4;" d="M 67.366367 326.510711 C 78.306479 323.201124 87.888799 308.536402 98.626003 304.556776 " transform="matrix(2.310163,0,0,2.308634,-51.416328,-28.617822)"/>
</g>
</svg>

<?xml version="1.0" encoding="UTF-8" standalone="no"?>
<svg
    xmlns:inkscape="http://www.inkscape.org/namespaces/inkscape"
    xmlns:rdf="http://www.w3.org/1999/02/22-rdf-syntax-ns#"
    xmlns="http://www.w3.org/2000/svg"
    xmlns:xlink="http://www.w3.org/1999/xlink"
    xmlns:ns1="http://sozi.baierouge.fr"
    xmlns:cc="http://creativecommons.org/ns#"
    xmlns:dc="http://purl.org/dc/elements/1.1/"
    xmlns:sodipodi="http://sodipodi.sourceforge.net/DTD/sodipodi-0.dtd"
    id="svg2"
    sodipodi:docname="Hand Open Cartoony.svg"
    viewBox="0 0 442.718 571.33362"
    version="1.0"
    inkscape:version="0.48.4 r9939"
  >
  <sodipodi:namedview
      id="namedview21"
      fit-margin-left="0"
      inkscape:zoom="1.2482599"
      borderopacity="1"
      inkscape:current-layer="layer1"
      inkscape:cx="331.72077"
      inkscape:cy="648.18827"
      inkscape:window-maximized="1"
      showgrid="false"
      fit-margin-right="0"
      bordercolor="#666666"
      inkscape:window-x="-8"
      guidetolerance="10"
      objecttolerance="10"
      inkscape:window-y="-8"
      fit-margin-bottom="0"
      inkscape:window-width="1366"
      inkscape:pageopacity="0"
      inkscape:pageshadow="2"
      pagecolor="#ffffff"
      gridtolerance="10"
      inkscape:window-height="706"
      fit-margin-top="0"
  />
  <g
      id="layer1"
      transform="translate(-22.527 -12.396)"
    >
    <path
        id="pathBras"
        sodipodi:nodetypes="ccccc"
        style="fill-rule:evenodd;stroke:#000000;stroke-width:4;fill:#f9bf9f"
        inkscape:connector-curvature="0"
        d="m371.29 581.73c-0.69-30.75 13.71-71 14.02-100.35-17.47-24.64-68.44-38.02-103.31-38.02-36.67 3.6-103.59 6.6854-131.26 25.575 6.3027 46.39 18.517 60.768 16.771 112.49"
    />
    <path
        id="pathContourMain"
        sodipodi:nodetypes="ccccccccccccccccccccccccccccccccccssccssccc"
        style="fill-rule:evenodd;stroke:#000000;stroke-width:4;fill:#f9bf9f"
        inkscape:connector-curvature="0"
        d="m265.75 518.49c-32.29-3.69-46.44 0.99-71.75-2.13-47.75-7.18-75.98-64-92.45-95.38-29.069-64.39-51.288-76.44-54.448-94.06-9.053-29.3-32.428-59.41-17.965-77.29 15.892-19.279 61.061 16.905 74.148 42.939 10.936 29.99 40.668 58.246 50.812 52.017 12.687-8.5003-0.34023-48.506 8.6158-95.003 4.996-27.176-6.892-67.38-5.3576-78.123 4.676-58.523-4.4947-53.657-2.3032-78.207 0.0854-12.023-1.8487-36.593 9.448-49.395 7.0606-7.161 23.465-9.8688 32.105-1.1947 10.12 15.19 10.81 25.91 12.38 41.702 0.63 7.912 1.43 15.541 0 28.498 0.10627 18.687 3.9919 39.294 7.2659 57.766 2.8461 20.936 0.30735 46.79 5.1361 65.568 2.0463 8.0438 20.673 8.1884 21.697-0.10921 4.1171-31.196-1.617-65.143-1.9662-82.246 1.6638-17.065 1.3755-59.824 1.3667-60.977 3.0584-19.798-0.10781-39.64 5.1676-57.731 3.4503-10.413 10.221-20.427 25.766-20.734 11.164-0.06077 20.3 9.1505 21.708 23.165 1.618 22.171 3.9584 44.021 4.9564 53.775-1.2991 25.825-0.65377 46.652 1.1022 63.714 1.2624 19.394-6.9544 59.104-2.726 83.765 1.8116 8.4948 16.679 10.44 17.808 3.1109 5.7361-29.401 4.1128-34.142 8.3187-73.3 4.2981-25.994 13.432-40.511 15.798-73.976 2.5487-21.415 5.9426-41.664 16.468-48.323 8.9224-5.2736 13.83-3.333 18-1.5 18.603 10.024 14.84 35.008 13.636 55.817-2.687 21.341-6.4042 54.796-6.5028 75.216-3.1739 25.334-16.154 58.053-16.704 80.905 0.3574 6.3863 12.463 10.738 15.382 6.2114 13.254-16.842 17.226-48.607 21.491-57.826 4.453-9.6254 12.565-39.409 16.573-46.177 7.5904-12.818 11.4-30.429 22.749-36.006 7.33-2.7016 19.157 1.767 21.605 12.401 0.93229 14.417-2.6666 36.263-6.6346 46.637-7.0937 18.547-10.151 42.324-14.67 53.84-3.9273 10.007-14.178 39.786-20.291 65.515-17.448 69.919-13.359 179.79-50.877 207.39-34.064 30.05-82.598 12.383-104.87 9.7373z"
    />
    <path
        id="pathPaumeMilieu"
        sodipodi:nodetypes="cc"
        style="stroke-opacity:.50196;stroke:#000000;stroke-linecap:round;stroke-width:4;fill:none"
        inkscape:connector-curvature="0"
        d="m214.27 311.41c54.939 24.71 116.18 12.056 164.11 37.428"
    />
    <path
        id="pathLigne"
        sodipodi:nodetypes="cc"
        style="stroke-opacity:.5;stroke:#000000;stroke-linecap:round;stroke-width:4;fill:none"
        inkscape:connector-curvature="0"
        d="m202.13 332.29c32.363 28.466 54.883 82.864 54.725 125.78"
    />
    <path
        id="pathIndexMilieu"
        sodipodi:nodetypes="cc"
        style="stroke-opacity:.50196;stroke:#000000;stroke-linecap:round;stroke-width:4;fill:none"
        inkscape:connector-curvature="0"
        d="m168.39 177.75c10.94-3.3083 22.789-4.0953 33.809-2.6933"
    />
    <path
        id="pathIndexHaut"
        sodipodi:nodetypes="cc"
        style="stroke-opacity:.50196;stroke:#000000;stroke-linecap:round;stroke-width:4;fill:none"
        inkscape:connector-curvature="0"
        d="m165.49 106.25c11.464-2.7766 23.174-2.1898 34.501-0.4986"
    />
    <path
        id="pathMajeurHaut"
        sodipodi:nodetypes="cc"
        style="stroke-opacity:.50196;stroke:#000000;stroke-linecap:round;stroke-width:4;fill:none"
        inkscape:connector-curvature="0"
        d="m252.73 90.584c10.229-2.6635 26.017-3.004 35.406-0.10084"
    />
    <path
        id="pathMajeurMilieu"
        sodipodi:nodetypes="cc"
        style="stroke-opacity:.50196;stroke:#000000;stroke-linecap:round;stroke-width:4;fill:none"
        inkscape:connector-curvature="0"
        d="m252.83 161.86c11.756-3.8848 27.708-4.4802 39.015-0.80112"
    />
    <path
        id="pathAnnulaireHaut"
        sodipodi:nodetypes="cc"
        style="stroke-opacity:.50196;stroke:#000000;stroke-linecap:round;stroke-width:4;fill:none"
        inkscape:connector-curvature="0"
        d="m349.07 111.34c9.5415 2.1294 21.308 0.3588 28.906 4.3025"
    />
    <path
        id="pathAnnulaireMilieu"
        sodipodi:nodetypes="cc"
        style="stroke-opacity:.50196;stroke:#000000;stroke-linecap:round;stroke-width:4;fill:none"
        inkscape:connector-curvature="0"
        d="m334.73 172.43c7.98 1.96 26.849 3.0228 34.809 7.0028"
    />
    <path
        id="pathAuriculaireMilieu"
        sodipodi:nodetypes="cc"
        style="stroke-opacity:.50196;stroke:#000000;stroke-linecap:round;stroke-width:4;fill:none"
        inkscape:connector-curvature="0"
        d="m410.56 213.27c6.3616 1.6851 17.637 8.2056 23.004 12.807"
    />
    <path
        id="pathAuriculaireMilieu-1"
        sodipodi:nodetypes="cc"
        style="stroke-opacity:.50196;stroke:#000000;stroke-linecap:round;stroke-width:4;fill:none"
        inkscape:connector-curvature="0"
        d="m426.31 168.78c7.0169 1.6633 13.355 4.0704 19.199 9.2017"
    />
    <path
        id="pathIndexMilieu-1"
        sodipodi:nodetypes="cc"
        style="stroke-opacity:.50196;stroke:#000000;stroke-linecap:round;stroke-width:4;fill:none"
        inkscape:connector-curvature="0"
        d="m67.366 326.51c10.94-3.3083 20.523-17.974 31.26-21.953"
    />
  </g
  >
  <metadata
    >
    <rdf:RDF
      >
      <cc:Work
        >
        <dc:format
          >image/svg+xml</dc:format
        >
        <dc:type
            rdf:resource="http://purl.org/dc/dcmitype/StillImage"
        />
        <cc:license
            rdf:resource="http://creativecommons.org/licenses/publicdomain/"
        />
        <dc:publisher
          >
          <cc:Agent
              rdf:about="http://openclipart.org/"
            >
            <dc:title
              >Openclipart</dc:title
            >
          </cc:Agent
          >
        </dc:publisher
        >
      </cc:Work
      >
      <cc:License
          rdf:about="http://creativecommons.org/licenses/publicdomain/"
        >
        <cc:permits
            rdf:resource="http://creativecommons.org/ns#Reproduction"
        />
        <cc:permits
            rdf:resource="http://creativecommons.org/ns#Distribution"
        />
        <cc:permits
            rdf:resource="http://creativecommons.org/ns#DerivativeWorks"
        />
      </cc:License
      >
    </rdf:RDF
    >
  </metadata
  >
</svg
>
